exported-svg/bell-off.svg

<svg height="24" viewBox="0 0 24 24" width="24" xmlns="http://www.w3.org/2000/svg"><path d="m16.7928932 17.5h-14.7928932c-.66666667 0-.66666667-1 0-1 1.38071187 0 2.5-1.1192881 2.5-2.5v-4.99936991c-.0013573-1.07735336.22939429-2.14087508.67484215-3.11868116l-4.52839554-4.52839554c-.19526215-.19526215-.19526215-.51184463 0-.70710678s.51184463-.19526215.70710678 0l4.77192268 4.77192268c.00558355.00532946.01102719.01077443.01632904.01632904l17.21174829 17.21174827c.1952621.1952622.1952621.5118446 0 .7071068-.1952622.1952621-.5118446.1952621-.7071068 0zm-10.85478344-10.85478346c-.2898416.74896383-.43912714 1.54720566-.43810976 2.35478346v5c0 .9793441-.40223361 1.8647415-1.05050863 2.5h11.34340183zm2.86760459-3.30975764c-.24049731.13570429-.54546897.05075276-.68117325-.18974455-.13570429-.24049731-.05075276-.54546897.18974455-.68117325 2.32270105-1.31061959 5.16667365-1.28920497 7.46937495.05624309 2.302701 1.34544793 3.7177014 3.81251347 3.7163413 6.47921581v4c0 .2761424-.2238586.5-.500001.5s-.5-.2238576-.5-.5l.0000001-4.0002552c.0011797-2.31136338-1.2251541-4.44948698-3.2208284-5.61554188-1.9956744-1.16605498-4.4604507-1.18461432-6.47345825-.04874402zm4.49178565 17.4136552c.1385605-.2388632.4445228-.3201746.6833859-.1816141.2388632.1385605.3201746.4445228.1816141.6833859-.4472472.7710055-1.2711642 1.2455704-2.1625 1.2455704s-1.7152528-.4745649-2.1625-1.2455704c-.13856047-.2388631-.05724908-.5448254.1816141-.6833859.2388631-.1385605.5448254-.0572491.6833859.1816141.2683483.4626032.7626985.7473422 1.2975.7473422s1.0291517-.284739 1.2975-.7473422z"/></svg>

<?xml version="1.0" encoding="UTF-8"?>
<svg width="24px" height="24px" viewBox="0 0 24 24" version="1.1" xmlns="http://www.w3.org/2000/svg" xmlns:xlink="http://www.w3.org/1999/xlink">
    <!-- Generator: Sketch 55.2 (78181) - https://sketchapp.com -->
    <title>bell-off</title>
    <desc>Created with Sketch.</desc>
    <g id="bell-off" stroke="none" stroke-width="1" fill="none" fill-rule="evenodd">
        <path d="M16.7928932,17.5 L2,17.5 C1.33333333,17.5 1.33333333,16.5 2,16.5 C3.38071187,16.5 4.5,15.3807119 4.5,14 L4.5,9.00063009 C4.4986427,7.92327673 4.72939429,6.85975501 5.17484215,5.88194893 L0.646446609,1.35355339 C0.451184464,1.15829124 0.451184464,0.841708755 0.646446609,0.646446609 C0.841708755,0.451184464 1.15829124,0.451184464 1.35355339,0.646446609 L6.12547607,5.41836929 C6.13105962,5.42369875 6.13650326,5.42914372 6.14180511,5.43469833 L23.3535534,22.6464466 C23.5488155,22.8417088 23.5488155,23.1582912 23.3535534,23.3535534 C23.1582912,23.5488155 22.8417088,23.5488155 22.6464466,23.3535534 L16.7928932,17.5 Z M5.93810976,6.64521654 C5.64826816,7.39418037 5.49898262,8.1924222 5.5,9 L5.5,14 C5.5,14.9793441 5.09776639,15.8647415 4.44949137,16.5 L15.7928932,16.5 L5.93810976,6.64521654 Z M8.80571435,3.3354589 C8.56521704,3.47116319 8.26024538,3.38621166 8.1245411,3.14571435 C7.98883681,2.90521704 8.07378834,2.60024538 8.31428565,2.4645411 C10.6369867,1.15392151 13.4809593,1.17533613 15.7836606,2.52078419 C18.0863616,3.86623212 19.501362,6.33329766 19.5000019,9 L19.5000019,13 C19.5000019,13.2761424 19.2761433,13.5 19.0000009,13.5 C18.7238585,13.5 18.5000009,13.2761424 18.5000009,13 L18.500001,8.9997448 C18.5011807,6.68838142 17.2748469,4.55025782 15.2791726,3.38420292 C13.2834982,2.21814794 10.8187219,2.1995886 8.80571435,3.3354589 Z M13.2975,20.7491141 C13.4360605,20.5102509 13.7420228,20.4289395 13.9808859,20.5675 C14.2197491,20.7060605 14.3010605,21.0120228 14.1625,21.2508859 C13.7152528,22.0218914 12.8913358,22.4964563 12,22.4964563 C11.1086642,22.4964563 10.2847472,22.0218914 9.8375,21.2508859 C9.69893953,21.0120228 9.78025092,20.7060605 10.0191141,20.5675 C10.2579772,20.4289395 10.5639395,20.5102509 10.7025,20.7491141 C10.9708483,21.2117173 11.4651985,21.4964563 12,21.4964563 C12.5348015,21.4964563 13.0291517,21.2117173 13.2975,20.7491141 Z" id="Combined-Shape" fill="#000000" fill-rule="nonzero"></path>
    </g>
</svg>
